icons/t-shirt.svg

<svg xmlns="http://www.w3.org/2000/svg" width="96" height="96"><path d="M19.1 30.7l2.1 1.6c1 .7 2.456 1.104 4.1 1q.879-.056 2.2-.5 1.3-.1 1.4-.1c1.9 0 3.7.8 5.1 2.2 1.3 1.4 2 3.2 2 5.1v32h24V40c0-1.9.7-3.7 2-5.1 1.4-1.4 3.2-2.2 5.1-2.2q.1 0 1.4.1 1.9.5 3.1.5c1.2 0 2.2-.3 3.2-1l2.1-1.6-4.9-5c-1.1-1.1-2.5-1.7-4-1.7h-8c-2 0-4 .5-5.8 1.4l-1.3.6q-2.948 1-4.9 1-1.952 0-4.9-1l-1.3-.6C40 24.5 38 24 36 24h-8c-1.5 0-2.9.6-4 1.7l-4.9 5zM28 40.9V72c0 2.1.8 4.2 2.3 5.7 1.5 1.5 3.6 2.3 5.7 2.3h24c2.1 0 4.2-.8 5.7-2.3 1.5-1.5 2.3-3.6 2.3-5.7V40.9l1.5.3q1.7.1 1.8.1c3 .1 5.8-.8 8.2-2.5q.1-.1 2.8-2.2c1.8-1.4 2.9-3.5 3-5.9 0-.5-.2-1.1-.4-1.6q-.723-2.017-1.4-3.2-1.604-2.802-5.8-5.9c-2.6-2.6-6.1-4-9.7-4h-8c-3.3 0-6.5.8-9.4 2.2q-1.55.7-2.6.7t-2.6-.7C42.5 16.8 39.3 16 36 16h-8c-3.6 0-7.1 1.4-9.7 4q-4.196 3.098-5.8 5.9-.677 1.183-1.4 3.2c-.2.5-.4 1.1-.4 1.6.1 2.4 1.2 4.5 3 5.9q2.7 2.1 2.8 2.2c2.4 1.7 5.2 2.6 8.2 2.5q.1 0 1.8-.1l1.5-.3z" fill-rule="evenodd" fill="#454545"/></svg>

<?xml version="1.0" standalone="no"?><!-- Generator: Gravit.io --><svg xmlns="http://www.w3.org/2000/svg" xmlns:xlink="http://www.w3.org/1999/xlink" width="96" height="96"><path d=" M 19.1 30.7 L 21.2 32.3 C 22.2 33 23.65633031484634 33.404421239427506 25.3 33.3 Q 26.17870172059994 33.244176665432896 27.5 32.8 Q 28.8 32.7 28.9 32.7 C 30.8 32.7 32.6 33.5 34 34.9 C 35.3 36.3 36 38.1 36 40 L 36 72 L 60 72 L 60 40 C 60 38.1 60.7 36.3 62 34.9 C 63.4 33.5 65.2 32.7 67.1 32.7 Q 67.2 32.7 68.5 32.8 Q 70.39999999999999 33.3 71.6 33.3 C 72.8 33.3 73.8 33 74.8 32.3 L 76.9 30.7 L 72 25.7 C 70.9 24.6 69.5 24 68 24 L 60 24 C 58 24 56 24.5 54.2 25.4 L 52.9 26 Q 49.951704523841514 27 48 27 Q 46.048295476158486 27 43.1 26 L 41.8 25.4 C 40 24.5 38 24 36 24 L 28 24 C 26.5 24 25.1 24.6 24 25.7 L 19.1 30.7 Z  M 28 40.9 L 28 72 C 28 74.1 28.8 76.2 30.3 77.7 C 31.8 79.2 33.9 80 36 80 L 60 80 C 62.1 80 64.2 79.2 65.7 77.7 C 67.2 76.2 68 74.1 68 72 L 68 40.9 L 69.5 41.2 Q 71.2 41.3 71.3 41.3 C 74.3 41.4 77.1 40.5 79.5 38.8 Q 79.6 38.7 82.3 36.6 C 84.1 35.2 85.2 33.1 85.3 30.7 C 85.3 30.2 85.1 29.6 84.9 29.1 Q 84.17719890310912 27.083014735475196 83.5 25.9 Q 81.8959309590107 23.097813960569642 77.7 20 C 75.1 17.4 71.6 16 68 16 L 60 16 C 56.7 16 53.5 16.8 50.6 18.2 Q 49.05081490960183 18.9 48 18.9 Q 46.94918509039817 18.9 45.4 18.2 C 42.5 16.8 39.3 16 36 16 L 28 16 C 24.4 16 20.9 17.4 18.3 20 Q 14.104069040989291 23.097813960569635 12.5 25.9 Q 11.82280109689089 27.083014735475196 11.1 29.1 C 10.9 29.6 10.7 30.2 10.7 30.7 C 10.8 33.1 11.9 35.2 13.7 36.6 Q 16.4 38.7 16.5 38.8 C 18.9 40.5 21.7 41.4 24.7 41.3 Q 24.8 41.3 26.5 41.2 L 28 40.9 Z " fill-rule="evenodd" fill="#454545" stroke="none"/><mask id="_mask_rVf3HaxPxbw7TOzbFa5NHhesJEUbWneH"><path d=" M 19.1 30.7 L 21.2 32.3 C 22.2 33 23.65633031484634 33.404421239427506 25.3 33.3 Q 26.17870172059994 33.244176665432896 27.5 32.8 Q 28.8 32.7 28.9 32.7 C 30.8 32.7 32.6 33.5 34 34.9 C 35.3 36.3 36 38.1 36 40 L 36 72 L 60 72 L 60 40 C 60 38.1 60.7 36.3 62 34.9 C 63.4 33.5 65.2 32.7 67.1 32.7 Q 67.2 32.7 68.5 32.8 Q 70.39999999999999 33.3 71.6 33.3 C 72.8 33.3 73.8 33 74.8 32.3 L 76.9 30.7 L 72 25.7 C 70.9 24.6 69.5 24 68 24 L 60 24 C 58 24 56 24.5 54.2 25.4 L 52.9 26 Q 49.951704523841514 27 48 27 Q 46.048295476158486 27 43.1 26 L 41.8 25.4 C 40 24.5 38 24 36 24 L 28 24 C 26.5 24 25.1 24.6 24 25.7 L 19.1 30.7 Z  M 28 40.9 L 28 72 C 28 74.1 28.8 76.2 30.3 77.7 C 31.8 79.2 33.9 80 36 80 L 60 80 C 62.1 80 64.2 79.2 65.7 77.7 C 67.2 76.2 68 74.1 68 72 L 68 40.9 L 69.5 41.2 Q 71.2 41.3 71.3 41.3 C 74.3 41.4 77.1 40.5 79.5 38.8 Q 79.6 38.7 82.3 36.6 C 84.1 35.2 85.2 33.1 85.3 30.7 C 85.3 30.2 85.1 29.6 84.9 29.1 Q 84.17719890310912 27.083014735475196 83.5 25.9 Q 81.8959309590107 23.097813960569642 77.7 20 C 75.1 17.4 71.6 16 68 16 L 60 16 C 56.7 16 53.5 16.8 50.6 18.2 Q 49.05081490960183 18.9 48 18.9 Q 46.94918509039817 18.9 45.4 18.2 C 42.5 16.8 39.3 16 36 16 L 28 16 C 24.4 16 20.9 17.4 18.3 20 Q 14.104069040989291 23.097813960569635 12.5 25.9 Q 11.82280109689089 27.083014735475196 11.1 29.1 C 10.9 29.6 10.7 30.2 10.7 30.7 C 10.8 33.1 11.9 35.2 13.7 36.6 Q 16.4 38.7 16.5 38.8 C 18.9 40.5 21.7 41.4 24.7 41.3 Q 24.8 41.3 26.5 41.2 L 28 40.9 Z " fill-rule="evenodd" fill="white" stroke="none"/></mask><path d=" M 19.1 30.7 L 21.2 32.3 C 22.2 33 23.65633031484634 33.404421239427506 25.3 33.3 Q 26.17870172059994 33.244176665432896 27.5 32.8 Q 28.8 32.7 28.9 32.7 C 30.8 32.7 32.6 33.5 34 34.9 C 35.3 36.3 36 38.1 36 40 L 36 72 L 60 72 L 60 40 C 60 38.1 60.7 36.3 62 34.9 C 63.4 33.5 65.2 32.7 67.1 32.7 Q 67.2 32.7 68.5 32.8 Q 70.39999999999999 33.3 71.6 33.3 C 72.8 33.3 73.8 33 74.8 32.3 L 76.9 30.7 L 72 25.7 C 70.9 24.6 69.5 24 68 24 L 60 24 C 58 24 56 24.5 54.2 25.4 L 52.9 26 Q 49.951704523841514 27 48 27 Q 46.048295476158486 27 43.1 26 L 41.8 25.4 C 40 24.5 38 24 36 24 L 28 24 C 26.5 24 25.1 24.6 24 25.7 L 19.1 30.7 Z  M 28 40.9 L 28 72 C 28 74.1 28.8 76.2 30.3 77.7 C 31.8 79.2 33.9 80 36 80 L 60 80 C 62.1 80 64.2 79.2 65.7 77.7 C 67.2 76.2 68 74.1 68 72 L 68 40.9 L 69.5 41.2 Q 71.2 41.3 71.3 41.3 C 74.3 41.4 77.1 40.5 79.5 38.8 Q 79.6 38.7 82.3 36.6 C 84.1 35.2 85.2 33.1 85.3 30.7 C 85.3 30.2 85.1 29.6 84.9 29.1 Q 84.17719890310912 27.083014735475196 83.5 25.9 Q 81.8959309590107 23.097813960569642 77.7 20 C 75.1 17.4 71.6 16 68 16 L 60 16 C 56.7 16 53.5 16.8 50.6 18.2 Q 49.05081490960183 18.9 48 18.9 Q 46.94918509039817 18.9 45.4 18.2 C 42.5 16.8 39.3 16 36 16 L 28 16 C 24.4 16 20.9 17.4 18.3 20 Q 14.104069040989291 23.097813960569635 12.5 25.9 Q 11.82280109689089 27.083014735475196 11.1 29.1 C 10.9 29.6 10.7 30.2 10.7 30.7 C 10.8 33.1 11.9 35.2 13.7 36.6 Q 16.4 38.7 16.5 38.8 C 18.9 40.5 21.7 41.4 24.7 41.3 Q 24.8 41.3 26.5 41.2 L 28 40.9 Z " fill-rule="evenodd" fill="none" stroke="none" stroke-width="16" mask="url(#_mask_rVf3HaxPxbw7TOzbFa5NHhesJEUbWneH)"/></svg>
